X: 38879
T: Sunny Corner
R: polka
M: 2/4
K: Gmajor
|:DD GG|A/B/c/A/ BB/c/|dG FG|AF G2:|
|:D/E/F/G/ AA|D/E/F/G/ AA|DE FG|FE D2|
d>c BA/G/|Bd gB/c/|dG FG|AF G2:|

